X: 9878
T: Dernawilt, The
R: jig
M: 6/8
K: Dmajor
|:cd|eAA Acd|eAA AGF|GFG E2 F|GFG E2 d|
eAA Acd|eAA AGF|GFG cec d2d2:|
|:z2|F3 G3|ABc d2 e|fdA AGF|GFG E3|
F3 G3|ABc d2 e|ecA ABc|d2d2:|

